inst/assets/svg/wi-moon-alt-waning-gibbous-1.svg

<?xml version="1.0" encoding="UTF-8"?>
<svg xmlns="http://www.w3.org/2000/svg" xmlns:xlink="http://www.w3.org/1999/xlink" width="30pt" height="30pt" viewBox="0 0 30 30" version="1.1">
<g id="surface356">
<path style=" stroke:none;fill-rule:nonzero;fill:rgb(0%,0%,0%);fill-opacity:1;" d="M 3.738281 14.429688 C 3.738281 12.390625 4.25 10.511719 5.261719 8.78125 C 6.269531 7.050781 7.640625 5.699219 9.371094 4.691406 C 11.101563 3.679688 12.980469 3.191406 15.019531 3.191406 C 17.058594 3.191406 18.941406 3.691406 20.671875 4.691406 C 22.398438 5.691406 23.761719 7.050781 24.761719 8.78125 C 25.761719 10.511719 26.261719 12.390625 26.261719 14.429688 C 26.261719 16.46875 25.761719 18.359375 24.761719 20.078125 C 23.761719 21.800781 22.398438 23.179688 20.671875 24.191406 C 18.941406 25.199219 17.058594 25.710938 15.019531 25.710938 C 12.980469 25.710938 11.089844 25.199219 9.371094 24.191406 C 7.648438 23.179688 6.269531 21.808594 5.261719 20.078125 C 4.25 18.351563 3.738281 16.46875 3.738281 14.429688 Z M 4.941406 14.429688 C 4.941406 15.789063 5.210938 17.089844 5.75 18.328125 C 6.289063 19.570313 7 20.648438 7.898438 21.550781 C 8.800781 22.449219 9.871094 23.171875 11.121094 23.699219 C 12.371094 24.230469 13.671875 24.511719 15.019531 24.511719 C 15.878906 24.511719 16.640625 24.421875 17.308594 24.230469 C 18.140625 23.789063 18.859375 23.269531 19.480469 22.660156 C 20.101563 22.050781 20.578125 21.441406 20.941406 20.808594 C 21.300781 20.179688 21.578125 19.480469 21.800781 18.71875 C 22.019531 17.960938 22.160156 17.238281 22.230469 16.578125 C 22.300781 15.921875 22.328125 15.210938 22.328125 14.429688 C 22.328125 13.5 22.230469 12.589844 22.03125 11.691406 C 21.828125 10.789063 21.519531 9.898438 21.101563 9.019531 C 20.679688 8.140625 20.109375 7.300781 19.378906 6.519531 C 18.648438 5.738281 17.808594 5.070313 16.839844 4.53125 C 16.441406 4.441406 15.828125 4.398438 15.019531 4.398438 C 13.660156 4.398438 12.359375 4.660156 11.121094 5.191406 C 9.878906 5.71875 8.800781 6.429688 7.898438 7.320313 C 7 8.210938 6.28125 9.289063 5.75 10.519531 C 5.21875 11.75 4.941406 13.058594 4.941406 14.429688 Z M 4.941406 14.429688 "/>
</g>
</svg>

<?xml version="1.0" encoding="utf-8"?>
<!-- Generator: Adobe Illustrator 22.0.1, SVG Export Plug-In . SVG Version: 6.00 Build 0)  -->
<svg version="1.1" id="Layer_1" xmlns="http://www.w3.org/2000/svg" xmlns:xlink="http://www.w3.org/1999/xlink" x="0px" y="0px"
	 viewBox="0 0 30 30" style="enable-background:new 0 0 30 30;" xml:space="preserve">
<path d="M3.74,14.43c0-2.04,0.51-3.92,1.52-5.65S7.64,5.7,9.37,4.69s3.61-1.5,5.65-1.5s3.92,0.5,5.65,1.5s3.09,2.36,4.09,4.09
	s1.5,3.61,1.5,5.65s-0.5,3.93-1.5,5.65s-2.36,3.1-4.09,4.11s-3.61,1.52-5.65,1.52s-3.93-0.51-5.65-1.52s-3.1-2.38-4.11-4.11
	S3.74,16.47,3.74,14.43z M4.94,14.43c0,1.36,0.27,2.66,0.81,3.9S7,20.65,7.9,21.55s1.97,1.62,3.22,2.15s2.55,0.81,3.9,0.81
	c0.86,0,1.62-0.09,2.29-0.28c0.83-0.44,1.55-0.96,2.17-1.57s1.1-1.22,1.46-1.85s0.64-1.33,0.86-2.09s0.36-1.48,0.43-2.14
	s0.1-1.37,0.1-2.15c0-0.93-0.1-1.84-0.3-2.74S21.52,9.9,21.1,9.02s-0.99-1.72-1.72-2.5s-1.57-1.45-2.54-1.99
	c-0.4-0.09-1.01-0.13-1.82-0.13c-1.36,0-2.66,0.26-3.9,0.79S8.8,6.43,7.9,7.32s-1.62,1.97-2.15,3.2S4.94,13.06,4.94,14.43z"/>
</svg>
